packages/web/app/assets/images/tamanu_logo_white.svg

<svg fill="none" height="26" viewBox="0 0 107 26" width="107" xmlns="http://www.w3.org/2000/svg"><path clip-rule="evenodd" d="m11.9286 4.19361h2.1464v2.22371h2.1467v2.22371h-2.1467v2.22367h-2.1464v-2.22367h-2.14637v-2.22371h2.14637z" fill="#fff" fill-rule="evenodd"/><path clip-rule="evenodd" d="m7.25029 7.39756c0 1.57705.5842 3.18244 1.69648 4.47964.99884 1.1652 2.15583 2.3206 3.31273 3.4763l.7429.7428.7432-.7428c1.1566-1.1557 2.3136-2.3111 3.3124-3.4763 1.1123-1.2972 1.6965-2.90289 1.6965-4.47964 0-1.49029-.5299-2.95896-1.6392-4.10826-1.1352-1.1764-2.6242-1.76491-4.1129-1.76491s-2.9774.58851-4.11294 1.76491c-1.10904 1.1493-1.63917 2.61797-1.63917 4.10826zm5.75211 10.83144c-1.7177-1.7801-3.62747-3.5596-5.15321-5.3392-2.67329-3.11753-2.84637-7.72965 0-10.67826 2.84611-2.948607 7.46031-2.948607 10.30671 0 2.8461 2.94861 2.673 7.56043 0 10.67826-1.5264 1.7796-3.4359 3.5591-5.1535 5.3392z" fill="#fc0" fill-rule="evenodd"/><path clip-rule="evenodd" d="m14.8666 21.3525-.7173-.8437c.6118.0256 1.1822-.5215 1.7802-.0316.8881.7276 1.8167 1.2488 3.8444 1.6285.3353.0627-.1855.4789-1.8814.3364-1.4264-.1197.1138.3139-1.6794.1419-.6233-.06-.2897.0901.8496.3129.571.1118.3694.6287-2.7339.4299-2.1052-.1345-2.5037-.0593-5.26808.0615-.92832.0405-2.4094-.3885-.86867-.7109.84898-.1775-2.06851-.3662-2.06851-.6052 0-.2457 1.437-.5523 2.07615-.7529 1.20397-.3782 2.19961-.9496 2.65041-1.3095 1.5992-1.2768 1.9697.2838 4.0165 1.3427z" fill="#fff" fill-rule="evenodd"/><path clip-rule="evenodd" d="m23.9665 22.4069c1.2874.3626 2.0335.7934 2.0335 1.2555 0 1.2912-5.8206 2.3376-13 2.3376-7.17971 0-13-1.0464-13-2.3376 0-.4621.746417-.8929 2.03355-1.2555-.6518.2481-1.01472.5227-1.01472.8113 0 1.1113 5.36421 2.0121 11.98117 2.0121 6.617 0 11.9812-.9008 11.9812-2.0121 0-.2886-.3627-.5632-1.0147-.8113z" fill="#fc0" fill-rule="evenodd"/><path clip-rule="evenodd" d="m21.7738 22.2699c1.0298.2405 1.6266.5261 1.6266.832 0 .8556-4.6566 1.5491-10.4005 1.5491-5.74389 0-10.40078-.6935-10.40078-1.5491 0-.3059.59714-.5915 1.62713-.832-.52161.1647-.81195.3464-.81195.5379 0 .7365 4.29162 1.3332 9.5856 1.3332 5.294 0 9.5856-.5967 9.5856-1.3332 0-.1915-.2906-.3732-.8117-.5379z" fill="#fc0" fill-rule="evenodd"/><g fill="#fff"><path d="m32.2257 5.93958h2.7537v4.05854h1.6363v2.38168h-1.6363v8.6142h-2.7537v-8.6142h-1.4083v-2.38168h1.4083z"/><path d="m43.3281 12.2528c-.8559 0-1.567.3004-2.1296.9042-.5657.6006-.8489 1.3734-.8489 2.3156 0 .9492.2863 1.7296.8629 2.3436.5765.6114 1.2838.9181 2.1264.9181.866 0 1.5873-.3003 2.1569-.9042.5727-.6006.8597-1.3905.8597-2.3676 0-.9563-.287-1.729-.8597-2.3233-.5696-.5898-1.2947-.8864-2.1677-.8864zm2.9029-2.2578h2.7544v10.9965h-2.7544v-1.1702c-.5384.5111-1.0806.8769-1.6222 1.101-.5416.2248-1.1321.3391-1.7639.3391-1.4254 0-2.654-.5493-3.6928-1.6503-1.0388-1.0978-1.5569-2.4642-1.5569-4.0966 0-1.6946.5042-3.0826 1.5086-4.1664 1.0045-1.0801 2.223-1.62168 3.6586-1.62168.6622 0 1.28.12445 1.8603.36958.5797.2444 1.1144.6171 1.6083 1.1073z"/><path d="m51.7441 9.99816h2.7538v1.28384c.473-.5206.9975-.9105 1.5778-1.1657.5759-.25973 1.2077-.38736 1.8909-.38736.687 0 1.3117.16953 1.8641.50796.5556.3378 1.0007.8349 1.3391 1.4838.4381-.6489.9766-1.146 1.6153-1.4838.6388-.33843 1.3391-.50796 2.0947-.50796.7835 0 1.4737.18287 2.0673.54606.5975.3619 1.0217.8381 1.2839 1.4216.2591.5867.3905 1.5391.3905 2.8579v6.4395h-2.7544v-5.5563c0-1.2426-.1549-2.0845-.4692-2.5226-.3143-.4388-.7873-.6591-1.4121-.6591-.4794 0-.9073.1346-1.2839.4032-.379.266-.6628.6387-.8457 1.1111-.1822.4737-.2756 1.2324-.2756 2.282v4.9417h-2.7543v-5.3043c0-.9803-.0724-1.6908-.221-2.1295-.1448-.442-.3657-.7664-.6559-.9836-.2927-.2139-.6489-.3206-1.0629-.3206-.4622 0-.8832.1346-1.2597.407-.3797.2724-.6591.6527-.8489 1.1422-.1867.4902-.28 1.2629-.28 2.3163v4.8725h-2.7538z"/><path d="m76.4623 12.2528c-.8558 0-1.5676.3004-2.1295.9042-.5664.6007-.8489 1.3734-.8489 2.3156 0 .9493.2863 1.7296.8628 2.3436.5753.6114 1.2832.9181 2.1258.9181.8667 0 1.5874-.3003 2.1575-.9042.5727-.6006.8597-1.3905.8597-2.3676 0-.9563-.287-1.729-.8597-2.3233-.5701-.5898-1.2946-.8864-2.1677-.8864zm2.9017-2.2578h2.7544v10.9965h-2.7544v-1.1702c-.5378.5111-1.08.8769-1.6216 1.101-.5423.2248-1.1315.3391-1.7639.3391-1.4248 0-2.6534-.5493-3.6928-1.6503-1.0381-1.0978-1.5562-2.4641-1.5562-4.0966 0-1.6946.5035-3.0826 1.508-4.1664 1.0044-1.0801 2.2235-1.62167 3.6578-1.62167.6636 0 1.2814.12444 1.8604.36957.5803.2444 1.115.6171 1.6083 1.1073z"/><path d="m84.9014 9.99816h2.7543v1.13214c.6235-.5245 1.1943-.8864 1.7017-1.0934.5066-.20446 1.0279-.30796 1.56-.30796 1.0896 0 2.0185.37966 2.7779 1.13906.6381.6489.9594 1.6045.9594 2.8687v7.2573h-2.7328v-4.8071c0-1.3111-.0597-2.181-.1765-2.6096-.1175-.4311-.3245-.7594-.6147-.9835-.2927-.2248-.6565-.3378-1.0838-.3378-.5581 0-1.0381.186-1.4388.5587-.4006.3728-.6774.8909-.8324 1.5461-.0793.3454-.12 1.087-.12 2.2299v4.4033h-2.7543z"/><path d="m97.3296 9.99563h2.7954v5.28777c0 1.0286.072 1.7429.214 2.1429.142.4007.368.7112.683.9359.315.2203.704.3308 1.164.3308.459 0 .852-.1105 1.173-.3276.321-.2172.559-.5384.714-.9626.115-.3174.173-.9943.173-2.0292v-5.37797h2.754v4.65287c0 1.9187-.151 3.2305-.455 3.9379-.369.8628-.919 1.5219-1.639 1.9841-.722.4597-1.64.6909-2.752.6909-1.208 0-2.1805-.2699-2.9272-.8077-.7454-.5384-1.2699-1.2876-1.5734-2.2502-.2171-.6661-.3238-1.8775-.3238-3.6344z"/></g></svg>

<svg width="107" height="26" viewBox="0 0 107 26" fill="none" xmlns="http://www.w3.org/2000/svg">
<path fill-rule="evenodd" clip-rule="evenodd" d="M11.9286 4.19361H14.075V6.41732H16.2217V8.64103H14.075V10.8647H11.9286V8.64103H9.78223V6.41732H11.9286V4.19361Z" fill="white"/>
<path fill-rule="evenodd" clip-rule="evenodd" d="M7.25029 7.39756C7.25029 8.97461 7.83449 10.58 8.94677 11.8772C9.94561 13.0424 11.1026 14.1978 12.2595 15.3535L13.0024 16.0963L13.7456 15.3535C14.9022 14.1978 16.0592 13.0424 17.058 11.8772C18.1703 10.58 18.7545 8.97431 18.7545 7.39756C18.7545 5.90727 18.2246 4.4386 17.1153 3.2893C15.9801 2.1129 14.4911 1.52439 13.0024 1.52439C11.5137 1.52439 10.025 2.1129 8.88946 3.2893C7.78042 4.4386 7.25029 5.90727 7.25029 7.39756ZM13.0024 18.229C11.2847 16.4489 9.37493 14.6694 7.84919 12.8898C5.1759 9.77227 5.00282 5.16015 7.84919 2.21154C10.6953 -0.737067 15.3095 -0.737067 18.1559 2.21154C21.002 5.16015 20.8289 9.77197 18.1559 12.8898C16.6295 14.6694 14.72 16.4489 13.0024 18.229Z" fill="#FFCC00"/>
<path fill-rule="evenodd" clip-rule="evenodd" d="M14.8666 21.3525L14.1493 20.5088C14.7611 20.5344 15.3315 19.9873 15.9295 20.4772C16.8176 21.2048 17.7462 21.726 19.7739 22.1057C20.1092 22.1684 19.5884 22.5846 17.8925 22.4421C16.4661 22.3224 18.0063 22.756 16.2131 22.584C15.5898 22.524 15.9234 22.6741 17.0627 22.8969C17.6337 23.0087 17.4321 23.5256 14.3288 23.3268C12.2236 23.1923 11.8251 23.2675 9.06072 23.3883C8.1324 23.4288 6.65132 22.9998 8.19205 22.6774C9.04103 22.4999 6.12354 22.3112 6.12354 22.0722C6.12354 21.8265 7.56054 21.5199 8.19969 21.3193C9.40366 20.9411 10.3993 20.3697 10.8501 20.0098C12.4493 18.733 12.8198 20.2936 14.8666 21.3525Z" fill="white"/>
<path fill-rule="evenodd" clip-rule="evenodd" d="M23.9665 22.4069C25.2539 22.7695 26 23.2003 26 23.6624C26 24.9536 20.1794 26 13 26C5.82029 26 0 24.9536 0 23.6624C0 23.2003 0.746417 22.7695 2.03355 22.4069C1.38175 22.655 1.01883 22.9296 1.01883 23.2182C1.01883 24.3295 6.38304 25.2303 13 25.2303C19.617 25.2303 24.9812 24.3295 24.9812 23.2182C24.9812 22.9296 24.6185 22.655 23.9665 22.4069Z" fill="#FFCC00"/>
<path fill-rule="evenodd" clip-rule="evenodd" d="M21.7738 22.2699C22.8036 22.5104 23.4004 22.796 23.4004 23.1019C23.4004 23.9575 18.7438 24.651 12.9999 24.651C7.25601 24.651 2.59912 23.9575 2.59912 23.1019C2.59912 22.796 3.19626 22.5104 4.22625 22.2699C3.70464 22.4346 3.4143 22.6163 3.4143 22.8078C3.4143 23.5443 7.70592 24.141 12.9999 24.141C18.2939 24.141 22.5855 23.5443 22.5855 22.8078C22.5855 22.6163 22.2949 22.4346 21.7738 22.2699Z" fill="#FFCC00"/>
<path d="M32.2257 5.93958H34.9794V9.99812H36.6157V12.3798H34.9794V20.994H32.2257V12.3798H30.8174V9.99812H32.2257V5.93958Z" fill="white"/>
<path d="M43.3281 12.2528C42.4722 12.2528 41.7611 12.5532 41.1985 13.157C40.6328 13.7576 40.3496 14.5304 40.3496 15.4726C40.3496 16.4218 40.6359 17.2022 41.2125 17.8162C41.789 18.4276 42.4963 18.7343 43.3389 18.7343C44.2049 18.7343 44.9262 18.434 45.4958 17.8301C46.0685 17.2295 46.3555 16.4396 46.3555 15.4625C46.3555 14.5062 46.0685 13.7335 45.4958 13.1392C44.9262 12.5494 44.2011 12.2528 43.3281 12.2528ZM46.231 9.995H48.9854V20.9915H46.231V19.8213C45.6926 20.3324 45.1504 20.6982 44.6088 20.9223C44.0672 21.1471 43.4767 21.2614 42.8449 21.2614C41.4195 21.2614 40.1909 20.7121 39.1521 19.6111C38.1133 18.5133 37.5952 17.1469 37.5952 15.5145C37.5952 13.8199 38.0994 12.4319 39.1038 11.3481C40.1083 10.268 41.3268 9.72642 42.7624 9.72642C43.4246 9.72642 44.0424 9.85087 44.6227 10.096C45.2024 10.3404 45.7371 10.7131 46.231 11.2033V9.995Z" fill="white"/>
<path d="M51.7441 9.99816H54.4979V11.282C54.9709 10.7614 55.4954 10.3715 56.0757 10.1163C56.6516 9.85657 57.2834 9.72894 57.9666 9.72894C58.6536 9.72894 59.2783 9.89847 59.8307 10.2369C60.3863 10.5747 60.8314 11.0718 61.1698 11.7207C61.6079 11.0718 62.1464 10.5747 62.7851 10.2369C63.4239 9.89847 64.1242 9.72894 64.8798 9.72894C65.6633 9.72894 66.3535 9.91181 66.9471 10.275C67.5446 10.6369 67.9688 11.1131 68.231 11.6966C68.4901 12.2833 68.6215 13.2357 68.6215 14.5545V20.994H65.8671V15.4377C65.8671 14.1951 65.7122 13.3532 65.3979 12.9151C65.0836 12.4763 64.6106 12.256 63.9858 12.256C63.5064 12.256 63.0785 12.3906 62.7019 12.6592C62.3229 12.9252 62.0391 13.2979 61.8562 13.7703C61.674 14.244 61.5806 15.0027 61.5806 16.0523V20.994H58.8263V15.6897C58.8263 14.7094 58.7539 13.9989 58.6053 13.5602C58.4605 13.1182 58.2396 12.7938 57.9494 12.5766C57.6567 12.3627 57.3005 12.256 56.8865 12.256C56.4243 12.256 56.0033 12.3906 55.6268 12.663C55.2471 12.9354 54.9677 13.3157 54.7779 13.8052C54.5912 14.2954 54.4979 15.0681 54.4979 16.1215V20.994H51.7441V9.99816Z" fill="white"/>
<path d="M76.4623 12.2528C75.6065 12.2528 74.8947 12.5532 74.3328 13.157C73.7664 13.7577 73.4839 14.5304 73.4839 15.4726C73.4839 16.4219 73.7702 17.2022 74.3467 17.8162C74.922 18.4276 75.6299 18.7343 76.4725 18.7343C77.3392 18.7343 78.0599 18.434 78.63 17.8301C79.2027 17.2295 79.4897 16.4396 79.4897 15.4625C79.4897 14.5062 79.2027 13.7335 78.63 13.1392C78.0599 12.5494 77.3354 12.2528 76.4623 12.2528ZM79.364 9.995H82.1184V20.9915H79.364V19.8213C78.8262 20.3324 78.284 20.6982 77.7424 20.9223C77.2001 21.1471 76.6109 21.2614 75.9785 21.2614C74.5537 21.2614 73.3251 20.7121 72.2857 19.6111C71.2476 18.5133 70.7295 17.147 70.7295 15.5145C70.7295 13.8199 71.233 12.4319 72.2375 11.3481C73.2419 10.268 74.461 9.72643 75.8953 9.72643C76.5589 9.72643 77.1767 9.85087 77.7557 10.096C78.336 10.3404 78.8707 10.7131 79.364 11.2033V9.995Z" fill="white"/>
<path d="M84.9014 9.99816H87.6557V11.1303C88.2792 10.6058 88.85 10.2439 89.3574 10.0369C89.864 9.83244 90.3853 9.72894 90.9174 9.72894C92.007 9.72894 92.9359 10.1086 93.6953 10.868C94.3334 11.5169 94.6547 12.4725 94.6547 13.7367V20.994H91.9219V16.1869C91.9219 14.8758 91.8622 14.0059 91.7454 13.5773C91.6279 13.1462 91.4209 12.8179 91.1307 12.5938C90.838 12.369 90.4742 12.256 90.0469 12.256C89.4888 12.256 89.0088 12.442 88.6081 12.8147C88.2075 13.1875 87.9307 13.7056 87.7757 14.3608C87.6964 14.7062 87.6557 15.4478 87.6557 16.5907V20.994H84.9014V9.99816Z" fill="white"/>
<path d="M97.3296 9.99563H100.125V15.2834C100.125 16.312 100.197 17.0263 100.339 17.4263C100.481 17.827 100.707 18.1375 101.022 18.3622C101.337 18.5825 101.726 18.693 102.186 18.693C102.645 18.693 103.038 18.5825 103.359 18.3654C103.68 18.1482 103.918 17.827 104.073 17.4028C104.188 17.0854 104.246 16.4085 104.246 15.3736V9.99563H107V14.6485C107 16.5672 106.849 17.879 106.545 18.5864C106.176 19.4492 105.626 20.1083 104.906 20.5705C104.184 21.0302 103.266 21.2614 102.154 21.2614C100.946 21.2614 99.9735 20.9915 99.2268 20.4537C98.4814 19.9153 97.9569 19.1661 97.6534 18.2035C97.4363 17.5374 97.3296 16.326 97.3296 14.5691V9.99563Z" fill="white"/>
</svg>
